X:19
T: Der Maedchenmoerder (Halewijn - Ulinger)
N: Q0041A
O: Mitteleuropa, Deutschland (BRD) , Westfalen
R: Ballade, Verfuehrung, Mord, Mordversuch bzw. Rache
M: 2/2
L: 1/8
K: D
DE | =F2FFFAGF | =FEE2E2
DE | =F2FFFAGF | =FEE2E2
=C2 | A2A2A=c_BA | AGG2G2
=FG | A2A2A2G=F | G2=F2E2D2

